packages/ffe-icons/icons/open/400/sm/rounded_corner.svg

<svg xmlns="http://www.w3.org/2000/svg" height="20" viewBox="0 -960 960 960" width="20"><path d="M180.211-744Q165-744 154.5-754.289q-10.5-10.29-10.5-25.5Q144-795 154.289-805.5q10.29-10.5 25.5-10.5Q195-816 205.5-805.711q10.5 10.29 10.5 25.5Q216-765 205.711-754.5q-10.29 10.5-25.5 10.5Zm150 0Q315-744 304.5-754.289q-10.5-10.29-10.5-25.5Q294-795 304.289-805.5q10.29-10.5 25.5-10.5Q345-816 355.5-805.711q10.5 10.29 10.5 25.5Q366-765 355.711-754.5q-10.29 10.5-25.5 10.5Zm-150 150Q165-594 154.5-604.289q-10.5-10.29-10.5-25.5Q144-645 154.289-655.5q10.29-10.5 25.5-10.5Q195-666 205.5-655.711q10.5 10.29 10.5 25.5Q216-615 205.711-604.5q-10.29 10.5-25.5 10.5Zm0 150Q165-444 154.5-454.289q-10.5-10.29-10.5-25.5Q144-495 154.289-505.5q10.29-10.5 25.5-10.5Q195-516 205.5-505.711q10.5 10.29 10.5 25.5Q216-465 205.711-454.5q-10.29 10.5-25.5 10.5Zm0 150Q165-294 154.5-304.289q-10.5-10.29-10.5-25.5Q144-345 154.289-355.5q10.29-10.5 25.5-10.5Q195-366 205.5-355.711q10.5 10.29 10.5 25.5Q216-315 205.711-304.5q-10.29 10.5-25.5 10.5Zm600 0Q765-294 754.5-304.289q-10.5-10.29-10.5-25.5Q744-345 754.289-355.5q10.29-10.5 25.5-10.5Q795-366 805.5-355.711q10.5 10.29 10.5 25.5Q816-315 805.711-304.5q-10.29 10.5-25.5 10.5Zm-600 150Q165-144 154.5-154.289q-10.5-10.29-10.5-25.5Q144-195 154.289-205.5q10.29-10.5 25.5-10.5Q195-216 205.5-205.711q10.5 10.29 10.5 25.5Q216-165 205.711-154.5q-10.29 10.5-25.5 10.5Zm150 0Q315-144 304.5-154.289q-10.5-10.29-10.5-25.5Q294-195 304.289-205.5q10.29-10.5 25.5-10.5Q345-216 355.5-205.711q10.5 10.29 10.5 25.5Q366-165 355.711-154.5q-10.29 10.5-25.5 10.5Zm150 0Q465-144 454.5-154.289q-10.5-10.29-10.5-25.5Q444-195 454.289-205.5q10.29-10.5 25.5-10.5Q495-216 505.5-205.711q10.5 10.29 10.5 25.5Q516-165 505.711-154.5q-10.29 10.5-25.5 10.5Zm150 0Q615-144 604.5-154.289q-10.5-10.29-10.5-25.5Q594-195 604.289-205.5q10.29-10.5 25.5-10.5Q645-216 655.5-205.711q10.5 10.29 10.5 25.5Q666-165 655.711-154.5q-10.29 10.5-25.5 10.5Zm150 0Q765-144 754.5-154.289q-10.5-10.29-10.5-25.5Q744-195 754.289-205.5q10.29-10.5 25.5-10.5Q795-216 805.5-205.711q10.5 10.29 10.5 25.5Q816-165 805.711-154.5q-10.29 10.5-25.5 10.5ZM744-476v-153.905Q744-678 710.75-711T630-744H480q-15.3 0-25.65-10.289-10.35-10.29-10.35-25.5Q444-795 454.35-805.5 464.7-816 480-816h150.123Q708-816 762-762q54 54 54 132v154q0 15.3-10.289 25.65-10.29 10.35-25.5 10.35Q765-440 754.5-450.35 744-460.7 744-476Z"/></svg>

<svg xmlns="http://www.w3.org/2000/svg" height="20" viewBox="0 -960 960 960" width="20"><path d="M180.21-744q-15.21 0-25.71-10.29t-10.5-25.5q0-15.21 10.29-25.71t25.5-10.5q15.21 0 25.71 10.29t10.5 25.5q0 15.21-10.29 25.71t-25.5 10.5Zm150 0q-15.21 0-25.71-10.29t-10.5-25.5q0-15.21 10.29-25.71t25.5-10.5q15.21 0 25.71 10.29t10.5 25.5q0 15.21-10.29 25.71t-25.5 10.5Zm-150 150q-15.21 0-25.71-10.29t-10.5-25.5q0-15.21 10.29-25.71t25.5-10.5q15.21 0 25.71 10.29t10.5 25.5q0 15.21-10.29 25.71t-25.5 10.5Zm0 150q-15.21 0-25.71-10.29t-10.5-25.5q0-15.21 10.29-25.71t25.5-10.5q15.21 0 25.71 10.29t10.5 25.5q0 15.21-10.29 25.71t-25.5 10.5Zm0 150q-15.21 0-25.71-10.29t-10.5-25.5q0-15.21 10.29-25.71t25.5-10.5q15.21 0 25.71 10.29t10.5 25.5q0 15.21-10.29 25.71t-25.5 10.5Zm600 0q-15.21 0-25.71-10.29t-10.5-25.5q0-15.21 10.29-25.71t25.5-10.5q15.21 0 25.71 10.29t10.5 25.5q0 15.21-10.29 25.71t-25.5 10.5Zm-600 150q-15.21 0-25.71-10.29t-10.5-25.5q0-15.21 10.29-25.71t25.5-10.5q15.21 0 25.71 10.29t10.5 25.5q0 15.21-10.29 25.71t-25.5 10.5Zm150 0q-15.21 0-25.71-10.29t-10.5-25.5q0-15.21 10.29-25.71t25.5-10.5q15.21 0 25.71 10.29t10.5 25.5q0 15.21-10.29 25.71t-25.5 10.5Zm150 0q-15.21 0-25.71-10.29t-10.5-25.5q0-15.21 10.29-25.71t25.5-10.5q15.21 0 25.71 10.29t10.5 25.5q0 15.21-10.29 25.71t-25.5 10.5Zm150 0q-15.21 0-25.71-10.29t-10.5-25.5q0-15.21 10.29-25.71t25.5-10.5q15.21 0 25.71 10.29t10.5 25.5q0 15.21-10.29 25.71t-25.5 10.5Zm150 0q-15.21 0-25.71-10.29t-10.5-25.5q0-15.21 10.29-25.71t25.5-10.5q15.21 0 25.71 10.29t10.5 25.5q0 15.21-10.29 25.71t-25.5 10.5ZM744-476v-153.9q0-48.1-33.25-81.1-33.25-33-80.75-33H480q-15.3 0-25.65-10.29Q444-764.58 444-779.79t10.35-25.71Q464.7-816 480-816h150.12Q708-816 762-762t54 132v154q0 15.3-10.29 25.65Q795.42-440 780.21-440t-25.71-10.35Q744-460.7 744-476Z"/></svg>
